picto/construction-site-framed.svg

<svg class="color-immutable" width="30" height="30" viewBox="0 0 30 30" fill="none" xmlns="http://www.w3.org/2000/svg"><path d="M29.9999 0H0V29.9999H29.9999V0Z" fill="#2D327D"/><path d="M25.4999 2.99999C26.3249 2.99999 26.9999 3.67499 26.9999 4.49999V25.4999C26.9999 26.3249 26.3249 26.9999 25.4999 26.9999H4.49999C3.67499 26.9999 2.99999 26.3249 2.99999 25.4999V4.49999C2.99999 3.67499 3.67499 2.99999 4.49999 2.99999H25.4999ZM25.4999 2.62499H4.49999C3.46612 2.62499 2.62499 3.46612 2.62499 4.49999V25.4999C2.62499 26.5338 3.46612 27.3749 4.49999 27.3749H25.4999C26.5338 27.3749 27.3749 26.5338 27.3749 25.4999V4.49999C27.3749 3.46612 26.5338 2.62499 25.4999 2.62499Z" fill="white"/><path d="M22.8104 18.3107C22.2271 17.7273 21.3462 17.6535 20.853 18.1468C20.5122 18.4877 19.7648 19.2351 19.3354 19.6644L15.7499 17.0349V10.5C15.7499 10.4998 15.7499 10.4997 15.7499 10.4996C15.7493 10.0155 15.515 9.54058 15.0819 9.2519C14.8259 9.0812 14.5364 8.99975 14.2501 8.99998C14.25 8.99998 14.25 8.99998 14.2499 8.99998H14.2495C14.2455 8.99998 14.2416 8.99998 14.2376 8.99998H10.8749C10.6845 8.99998 10.5165 9.09485 10.4148 9.2396C10.4146 9.2396 10.4145 9.2396 10.4143 9.2396L8.6165 11.8038L8.47167 11.6976C8.30465 11.5751 8.06997 11.6112 7.9475 11.7782C7.82502 11.9452 7.8611 12.1799 8.02812 12.3024L8.18585 12.418L8.17947 12.4271C8.00112 12.6815 8.06277 13.0323 8.3171 13.2106C8.41535 13.2795 8.528 13.3126 8.63952 13.3126C8.8127 13.3126 8.98309 13.2327 9.09289 13.0833L9.88632 13.6651L10.3027 13.0404L9.52384 12.4692L11.1675 10.125H12.6971L10.0018 14.1679C9.92779 14.2789 9.87079 14.3962 9.82969 14.5168C9.82872 14.5197 9.82752 14.5226 9.82654 14.5255L6.9974 23.0128C6.86645 23.4057 7.07877 23.8305 7.47177 23.9615C7.55045 23.9877 7.6304 24.0002 7.70907 24.0002C8.0231 24.0002 8.31575 23.8014 8.42045 23.4871L10.9165 15.9988L11.9998 19.61V23.2499C11.9998 23.6642 12.3356 23.9999 12.7498 23.9999C13.164 23.9999 13.4998 23.6642 13.4998 23.2499V19.512C13.5 19.4955 13.4997 19.4787 13.4988 19.462C13.4988 19.4609 13.4987 19.4599 13.4986 19.4588C13.498 19.4479 13.4972 19.4371 13.4961 19.4262C13.4957 19.4218 13.4952 19.4175 13.4946 19.4132C13.4937 19.4058 13.4929 19.3985 13.4919 19.3911C13.4907 19.3832 13.4893 19.3754 13.488 19.3675C13.4873 19.3638 13.4867 19.3601 13.4859 19.3563C13.4838 19.3451 13.4813 19.3339 13.4786 19.3228C13.4784 19.3223 13.4784 19.3218 13.4782 19.3213C13.4742 19.3048 13.4697 19.2885 13.4646 19.2724L12.452 15.897C12.4677 15.8759 12.4831 15.8542 12.4979 15.832L14.6249 12.6416V16.2099L13.3299 15.2602L12.9135 15.8849L14.6249 17.14V17.625C14.6249 17.9356 14.8767 18.1875 15.1874 18.1875C15.3945 18.1875 15.5751 18.0751 15.6727 17.9084L18.7779 20.1855C18.6551 20.2776 18.5206 20.3646 18.4145 20.4176L17.5853 20.8322C17.4009 20.9245 17.1487 21.1349 17.0249 21.2999L15 23.9999H23.9999V19.5L22.8104 18.3107Z" fill="white"/><path d="M16.5 9.74998C17.3284 9.74998 18 9.07843 18 8.24998C18 7.42153 17.3284 6.74998 16.5 6.74998C15.6715 6.74998 15 7.42153 15 8.24998C15 9.07843 15.6715 9.74998 16.5 9.74998Z" fill="white"/></svg>

<svg class="color-immutable" width="30" height="30" viewBox="0 0 30 30" fill="none" xmlns="http://www.w3.org/2000/svg"><path d="M30 0H0v30h30V0Z" fill="#2D327D"/><path d="M25.5 3c.825 0 1.5.675 1.5 1.5v21c0 .825-.675 1.5-1.5 1.5h-21c-.825 0-1.5-.675-1.5-1.5v-21C3 3.675 3.675 3 4.5 3h21Zm0-.375h-21A1.877 1.877 0 0 0 2.625 4.5v21c0 1.034.841 1.875 1.875 1.875h21a1.877 1.877 0 0 0 1.875-1.875v-21A1.877 1.877 0 0 0 25.5 2.625Z" fill="#fff"/><path d="M22.81 18.31c-.583-.583-1.464-.656-1.957-.163l-1.518 1.517-3.585-2.63V10.5a1.498 1.498 0 0 0-1.5-1.5h-3.375a.561.561 0 0 0-.46.24l-1.798 2.564-.145-.106a.375.375 0 1 0-.444.604l.158.116-.007.01a.563.563 0 0 0 .914.655l.793.582.417-.625-.78-.57 1.645-2.345h1.53l-2.696 4.043a1.5 1.5 0 0 0-.172.349l-.003.008-2.83 8.488a.75.75 0 0 0 1.423.474L10.916 16 12 19.61v3.64a.75.75 0 1 0 1.5 0v-3.738l-.001-.05v-.003a.715.715 0 0 0-.004-.046l-.003-.022-.004-.023-.002-.012a.645.645 0 0 0-.007-.033v-.002a.736.736 0 0 0-.014-.049l-1.013-3.375.046-.065 2.127-3.19v3.568l-1.295-.95-.416.625 1.71 1.255v.485a.563.563 0 0 0 1.049.283l3.105 2.277c-.123.093-.257.18-.363.233l-.83.414a1.894 1.894 0 0 0-.56.468L15 24h9v-4.5l-1.19-1.19ZM16.5 9.75a1.5 1.5 0 1 0 0-3 1.5 1.5 0 0 0 0 3Z" fill="#fff"/></svg>
